icons/1_Primary/Joker.com.svg

<svg width="1024" height="1024" fill="none" xmlns="http://www.w3.org/2000/svg"><g clip-path="url(#a)"><path d="M512 1024c282.77 0 512-229.23 512-512S794.77 0 512 0 0 229.23 0 512s229.23 512 512 512Z" fill="#F9DE81"/><path d="M290.36 332.09a39.355 39.355 0 0 1 42-3.12 39.382 39.382 0 0 1 17.88 19.88 39.996 39.996 0 0 1 2 23.35l161.13 92.19a136.846 136.846 0 0 1-7.86-26.13 84.8 84.8 0 0 1-1.67-16.93c-.09-8.06 1.4-16.41 5.74-23.33a29.909 29.909 0 0 1 14.26-11.7c7.36-3 15.43-3.68 23.3-3.46 16 .63 31.67 4.79 46.85 9.73 20 6.66 39.28 15.14 58.23 24.28 33 16 64.81 34.23 96.11 53.26a39.386 39.386 0 0 1 31.611-6.318A39.369 39.369 0 0 1 805.68 483.2a39.596 39.596 0 0 1-1.3 40.11 39.3 39.3 0 0 1-69.38-5.74 40.003 40.003 0 0 1-2.17-24.2c-12.65-.05-25.29.17-37.94.11-13.76.15-27.53.05-41.29.19 4.88 6 7.22 13.58 9.5 20.86 4.8 16.62 7.67 33.71 10.51 50.76 3 18.46 5.61 37 8.78 55.42 1.54 8.82 3.17 17.63 5.42 26.31a84.243 84.243 0 0 0 4 12.08c-5.73-4.19-10.13-9.85-14.51-15.37-9.06-11.74-17.46-24-27.61-34.9-8.79-9.38-19-18-31.32-22.23a49.915 49.915 0 0 0-31.33-.22c-13.85 4.27-25.92 12.8-36.71 22.26-17.33 15.42-31.87 33.71-45.33 52.55a430.57 430.57 0 0 0-57.41-19.27 253.94 253.94 0 0 0-44.81-7.42c-17-1.09-34.31-.11-50.58 5.15a154.779 154.779 0 0 0-18 7.57 72.468 72.468 0 0 0-10.2 5.91c-.88.66-1.92 1.32-2.18 2.48A39.3 39.3 0 1 1 311.08 613l115.28-78.4c-33.387-44.507-66.777-89.013-100.17-133.52a39.384 39.384 0 0 1-47.249-19.266 39.389 39.389 0 0 1 11.409-49.734l.01.01Z" fill="#fff"/></g><defs><clipPath id="a"><path fill="#fff" d="M0 0h1024v1024H0z"/></clipPath></defs></svg>

<svg width="1024" height="1024" viewBox="0 0 1024 1024" fill="none" xmlns="http://www.w3.org/2000/svg">
<g clip-path="url(#clip0_2_2562)">
<path d="M512 1024C794.77 1024 1024 794.77 1024 512C1024 229.23 794.77 0 512 0C229.23 0 0 229.23 0 512C0 794.77 229.23 1024 512 1024Z" fill="#F9DE81"/>
<path d="M290.36 332.09C296.346 327.644 303.472 324.991 310.907 324.438C318.343 323.886 325.783 325.457 332.36 328.97C340.456 333.309 346.781 340.341 350.24 348.85C353.223 356.259 353.92 364.392 352.24 372.2L513.37 464.39C509.886 455.964 507.253 447.21 505.51 438.26C504.387 432.687 503.828 427.015 503.84 421.33C503.75 413.27 505.24 404.92 509.58 398C512.982 392.695 517.973 388.6 523.84 386.3C531.2 383.3 539.27 382.62 547.14 382.84C563.14 383.47 578.81 387.63 593.99 392.57C613.99 399.23 633.27 407.71 652.22 416.85C685.22 432.85 717.03 451.08 748.33 470.11C752.855 466.887 758.011 464.657 763.459 463.568C768.907 462.479 774.524 462.555 779.941 463.792C785.358 465.028 790.451 467.396 794.887 470.741C799.324 474.086 803.002 478.332 805.68 483.2C809.056 489.395 810.716 496.38 810.487 503.432C810.259 510.484 808.15 517.346 804.38 523.31C800.539 529.365 795.114 534.254 788.693 537.447C782.272 540.64 775.1 542.015 767.954 541.424C760.807 540.833 753.959 538.297 748.15 534.093C742.342 529.888 737.794 524.174 735 517.57C731.785 509.924 731.027 501.467 732.83 493.37C720.18 493.32 707.54 493.54 694.89 493.48C681.13 493.63 667.36 493.53 653.6 493.67C658.48 499.67 660.82 507.25 663.1 514.53C667.9 531.15 670.77 548.24 673.61 565.29C676.61 583.75 679.22 602.29 682.39 620.71C683.93 629.53 685.56 638.34 687.81 647.02C688.837 651.142 690.174 655.18 691.81 659.1C686.08 654.91 681.68 649.25 677.3 643.73C668.24 631.99 659.84 619.73 649.69 608.83C640.9 599.45 630.69 590.83 618.37 586.6C608.221 583.166 597.236 583.089 587.04 586.38C573.19 590.65 561.12 599.18 550.33 608.64C533 624.06 518.46 642.35 505 661.19C486.339 653.427 467.155 646.988 447.59 641.92C432.905 638.113 417.908 635.63 402.78 634.5C385.78 633.41 368.47 634.39 352.2 639.65C346.047 641.792 340.035 644.32 334.2 647.22C330.645 648.91 327.234 650.886 324 653.13C323.12 653.79 322.08 654.45 321.82 655.61C318.963 663.527 313.639 670.318 306.633 674.983C299.626 679.647 291.307 681.939 282.901 681.52C274.494 681.102 266.444 677.996 259.935 672.659C253.426 667.322 248.803 660.036 246.746 651.874C244.688 643.713 245.306 635.106 248.507 627.321C251.709 619.537 257.325 612.986 264.529 608.633C271.733 604.28 280.144 602.355 288.525 603.141C296.905 603.927 304.811 607.383 311.08 613L426.36 534.6C392.973 490.093 359.583 445.587 326.19 401.08C317.309 403.998 307.68 403.662 299.024 400.132C290.368 396.603 283.249 390.11 278.941 381.814C274.632 373.519 273.413 363.961 275.504 354.85C277.594 345.739 282.856 337.668 290.35 332.08L290.36 332.09Z" fill="white"/>
</g>
<defs>
<clipPath id="clip0_2_2562">
<rect width="1024" height="1024" fill="white"/>
</clipPath>
</defs>
</svg>
